!!!!SEGMENT: pl-wtm--a-41-211-95_gold-artur--gdy-ciebie-strace-jestem-wprawdzie-od-tego-daleki.krn
!!!cenid: 19xx:10
!!!COM: Gold, Artur
!!!COM-rismID: pe50044903
!!!CDT: 1897/03/17-1943
!!!CNT: Polish
!!!OTL: Gdy ciebie stracę/Jestem wprawdzie od tego daleki
!!!PDT: 1933
!!!AGN: Secular
!!!YEC: Copyright 2022 Narodowy Instytut Fryderyka Chopina (https://polishscores.org)
!!!YEM: License CC-BY-4.0 (https://creativecommons.org/licenses/by/4.0)
!!!SMS-siglum: PL-Wtm
!!!SMS-shelfmark: A.41.211/95
!!!SMS-variant:
!!!SMS-altvar:
!!!SMS-shelfwork: W
!!!NIFC-rismSourceID: 1001218789
!!!NIFC-rismChildID: 1001218789
!!!NIFC-islandoraID: pl-wtm:97313
!!!URL-pdf-islandora: https://repozytorium.nifc.pl/islandora/object/pl-wtm%3A97313/datastream/PDF/view
!!!URL-scan: https://polish.musicsources.pl/pl/lokalizacje/galeria/druki-muzyczne/22181/2 @EN{Scan on Polish Music Sources Website} @PL{Skany w portalu Dziedzictwo Muzyki Polskiej w otwartym dostępie}
!!!IIIF:
!!!ONB-nifc:
!!!AIN: 2 piano 1 vox
!!!key: d
**kern	**kern	**dynam	**kern	**text	**text
*part3	*part2	*part2	*part1	*part1	*part1
*staff3	*staff2	*	*staff1	*staff1	*staff1
*I"[Piano]	*I"[Piano]	*	*I"[Voce]	*	*
*I'[pf]	*I'[pf]	*	*I'[V]	*	*
*ICklav	*ICklav	*	*ICvox	*	*
*Ipiano	*Ipiano	*	*Ivox	*	*
*>[A,A1,A,A2]	*>[A,A1,A,A2]	*>[A,A1,A,A2]	*>[A,A1,A,A2]	*>[A,A1,A,A2]	*>[A,A1,A,A2]
*>A	*>A	*>A	*>A	*>A	*>A
*clefF4	*clefG2	*	*clefG2	*	*
*k[b-]	*k[b-]	*	*k[b-]	*	*
*d:	*d:	*	*d:	*	*
*M2/4	*M2/4	*	*M2/4	*	*
8r	16g#X/LL	f	8r	.	.
.	16a/JJ	.	.	.	.
=1	=1	=1	=1	=1	=1
*	*^	*	*	*	*
8FF/ 8D 8A	8.dd/L	8f\ 8a	.	2r	.	.
8r	.	8r	.	.	.	.
.	32ee/LL	.	.	.	.	.
.	32ff/JJJ	.	.	.	.	.
8AA/ 8E 8c#X	8.ee/L	8g\ 8a	.	.	.	.
8r	.	8r	.	.	.	.
.	32dd/LL	.	.	.	.	.
.	32cc#X/JJJ	.	.	.	.	.
=2	=2	=2	=2	=2	=2	=2
8FF/ 8D 8A	8.dd/L	8f\ 8a	.	2r	.	.
8r	.	8r	.	.	.	.
.	32cc/LL	.	.	.	.	.
.	32b-/JJJ	.	.	.	.	.
8FF#X/ 8D 8A	8.cc/L	8d\ 8a	.	.	.	.
8r	.	8r	.	.	.	.
.	32b-/LL	.	.	.	.	.
.	32a/JJJ	.	.	.	.	.
=3	=3	=3	=3	=3	=3	=3
8GG/ 8D 8B-	16b-/KL	8d\ 8g	.	2r	.	.
.	8a/	.	.	.	.	.
8r	.	8r	.	.	.	.
.	16g/Jk	.	.	.	.	.
4AAA/ 4AA	16a/KL	16c#X\KL 16e	.	.	.	.
.	8f/	8A\ 8c#	.	.	.	.
.	16e/Jk	16G\Jk 16c#	.	.	.	.
*	*v	*v	*	*	*	*
=4	=4	=4	=4	=4	=4
8DD/L 8D	8F/L 8A 8d	.	4r	.	.
((8AAA/J 8AA	(>(8G/J 8A	f >	.	.	.
16DD'</)) 16D'>	16F'>/)) 16A 16d	] p	8r	.	.
16r	16r	.	.	.	.
8r	16g#X/LL	p	16g#X/	1. Jest-	2. Nie
.	16a/JJ	.	16a/	-em	na-
=5||	=5||	=5||	=5||	=5||	=5||
*	*^	*	*	*	*
8DD/ 8D	8dd/L	8f\ 8a	.	8dd\	wpraw-	-le-
8r	16ee/L	8r	.	16ee\	-dzie	-ży
.	16ff/JJ	.	.	16ff\	od	wy-
8EE/ 8E	8ee/L	8g\ 8a	.	8ee\	te-	-ma-
8r	16dd/L	8r	.	16dd\	-go	-wiać
.	16cc#X/JJ	.	.	16cc#X\	da-	z pew-
!!LO:LB:g=original	!	!	!	!	!	!
=6	=6	=6	=6	=6	=6	=6
8FF\L 8F	8ee/L	8f\L 8a	.	8ee\	-1.    le-	-2.   no-
8F\J 8A 8d	[8dd/J	[8f\J [>8a	.	[8dd\	-ki	-ścią
8F\L 8A 8d	8dd/L]	8f\] 8a]	.	8dd\]	.	.
8FF\J 8F	16g#X/L	8rg	.	16g#X/	Że-	Sło-
.	16a/JJ	.	.	16a/	-by	-wa
*	*v	*v	*	*	*	*
=7	=7	=7	=7	=7	=7
8FF#X\L 8F#X	8dd\L	.	8dd\	te-	„wier-
8F#\J 8c 8d	16cc\L	.	16cc\	-raz	-ność”
.	16dd\JJ	.	16dd\	przy-	„na
8F#\L 8c 8d	8cc\L	.	8cc\	-szło-	wie-
8DD\J 8D	16b-\L	.	16b-\	-ści	-ki”
.	16a\JJ	.	16a/	się	„po
=8	=8	=8	=8	=8	=8
8GG\L 8G	[4g/	.	[4g/	bać.	grób”
8G\J 8B- 8d	.	.	.	.	.
!LO:TX:t=P:problem: mixed beam	!	!	!	!	!
8G\L 8B- 8d	8g/L]	.	8g/]	.	.
8DD/J 8D	16f#X/L	.	16f#X/	Prze-	Kto
.	16g/JJ	.	16g/	-cież	wie
=9	=9	=9	=9	=9	=9
8EE/L 8E	8b-/L	.	8b-\	wiem,	ju-
8G/J 8A 8c#X	16a/L	.	16a/	żeś	-tro
.	16b-/JJ	.	16b-\	jest	co
8A\L 8c# 8g	8b-/L	.	8b-\	mo-	bę-
8AA\J 8A	16a/L	.	16a/	-ja	-dzie
.	16g/JJ	.	16g/	na	z wie-
=10	=10	=10	=10	=10	=10
8FF\L 8F	8b-/L	.	8b-\	wie-	-no-
8F\J 8A 8d	[8a/J	.	[8a/	-ki	-ścią
8F\L 8A 8d	8a/L]	.	8a/]	.	.
8F\J 8A 8d	16f/L	.	16f/	Lecz-	I
.	16g/JJ	.	16g/	-kto	z mi-
!!LO:LB:g=original	!	!	!	!	!
=11	=11	=11	=11	=11	=11
8EE/L 8E	8a/L	.	8a/	1.   wie	-2.   ło-
8G/J 8B- 8d	16g/L	.	16g/	co	-ścią
.	16f/JJ	.	16f/	los	mą,
8Dn/L	16e/LL	.	16e/	ju-	któ-
.	16d/	.	16d/	-tro	-rą
8E/J 8G#X	16c#X/	.	16c#X/	mo-	masz
.	16d/JJ	.	16d/	-że	u
=12	=12	=12	=12	=12	=12
8AA\L 8A	[4c#X/ [4e	.	[4e/	dać?	stóp...-
16BB-\L 16B-	.	.	.	.	.
16AA\JJ 16A	.	.	.	.	.
8GG\L 8G	8c#/L] 8e]	.	8e/]	.	.
16qqA/LL	.	.	.	.	.
16qqG/JJ	.	.	.	.	.
16F\L	16g#X/L	.	16g#X/	Nie	-Prze-
16E\JJ	16a/JJ	.	16a/	wy-	-cież
=13	=13	=13	=13	=13	=13
*	*^	*	*	*	*
8DD/ 8D	8dd/L	8f\ 8a	.	8dd\	-ma-	w ży-
8r	16ee/L	8r	.	16ee\	-gam	-ciu
.	16ff/JJ	.	.	16ff\	od	jest
8EE/ 8E	8ee/L	8f\ 8g	.	8ee\	cie-	wszy-
8r	16dd/L	8r	.	16dd\	-bie	-stko
.	16cc#X/JJ	.	.	16cc#X\	przy-	mo-
=14	=14	=14	=14	=14	=14	=14
8FF\L 8F	8ee/L	8f\L 8a	.	8ee\	-się-	-żli-
8F\J 8A 8d	[8dd/J	[8f\J [>8a	.	[8dd\	-gi	-we,
8F\L 8A 8d	8dd/L]	8f\] 8a]	.	8dd\]	.	.
8FF\J 8F	16cc#X/L	8r	.	16cc#X\	Że	Ser-
.	16dd/JJ	.	.	16dd\	nie	-ce
*	*v	*v	*	*	*	*
=15	=15	=15	=15	=15	=15
8FF#X\L 8F#X	8ee-X\L	.	8ee-X\	rzu-	mięk-
8F#\J 8c 8d	16dd\L	.	16dd\	-cisz	-kie
.	16ccn\JJ	.	16ccn\	jak	i
8F#\L 8c 8d	8cc\L	.	8cc\	tam-	zmien-
8DD\J 8D	16b-\L	.	16b-\	-tą	-ny
.	16a\JJ	.	16a/	z przed	jest
!!LO:LB:g=original	!	!	!	!	!
=16	=16	=16	=16	=16	=16
8GG/L 8D	[4g/	.	[4g/	1.   lat	2.   świat
8G/J 8B- 8d	.	.	.	.	.
8G/L 8B- 8d	8g/L]	.	8g/]	.	.
8DD/J 8D	16g/L	.	16g/	Od	Ty
.	16a/JJ	.	16a/	mi-	znasz
=17	=17	=17	=17	=17	=17
8GG\L 8E	8b-\L	.	8b-\	-ło-	tyl-
8G\J 8B- 8d 8e	16b-\L	.	16b-\	-ści	-ko
.	16cc\JJ	.	16cc\	twej	pie-
8G\L 8B- 8d 8e	16dd\LL	.	16dd\	wię-	-szczo-
.	16dd\	.	16dd\	-ksze	-ty
8GG\J 8E	16cc\	.	16cc\	są	mo-
.	16b-\JJ	.	16b-\	po-	-je
=18	=18	=18	=18	=18	=18
8FF\L 8F	8dd\L	.	8dd\	-tę-	tkli-
8A\J 8d 8f	[<8a\J	.	[8a/	-gi	-we,
8A\L 8d 8f	8a/L]	.	8a/]	.	.
8FF\J 8F	16g#X/L	.	16g#X/	Więc	A-
.	16a/JJ	.	16a/	wy-	-le
=19	=19	=19	=19	=19	=19
8EE\L 8E	8bn\L	.	8bn\	-bie-	ja
8G#X\J 8d 8e	16b\L	.	16b\	-raj:	drżę,
.	16cc#X\JJ	.	16cc#X\	czy	że
8G#\L 8d 8e	16dd\LL	.	16dd\	ja	cie-
.	16dd\	.	16dd\	czy	-bie
8EE\J 8E	16cc#\	.	16cc#\	wiel-	ktoś
.	16dd\JJ	.	16dd\	-ki	mi
=20	=20	=20	=20	=20	=20
*	*^	*	*	*	*
8AA;,\ 8E 8c#X	8ee;,/	8g\ 8a	.	8ee,;\	świat	skradł...
8r	8dd;/L	8r	.	8dd\	1.2. Gdy	.
8FF#X/L 8F#X	8.ee/	8a\L	.	8.ee\	cie-	.
8FFn/J 8Fn	.	8a-X\J	.	.	.	.
.	16bn/Jk	.	.	16bn\	-bie	.
*	*v	*v	*	*	*	*
*kcancel	*kcancel	*kcancel	*	*kcancel	*
!!LO:LB:g=original	!	!	!	!	!
=21!|:	=21!|:	=21!|:	=21!|:	=21!|:	=21!|:
*k[f#c#]	*k[f#c#]	*	*k[f#c#]	*	*
!	!	!LO:DY:t= p_f	!LO:TX:a:B:t=Refrain	!	!
8EE\L 8E	4g\ 4dd	p	4dd\	stra-	.
8A\J 8c# 8e	.	.	.	.	.
8A\L 8c# 8e	[4g\ [4cc#	.	[4cc#\	-cę	.
8EE\J 8E	.	.	.	.	.
=22	=22	=22	=22	=22	=22
8AAA/L 8AA	8g\L] 8cc#]	.	8cc#\]	.	.
8G/J 8A 8c#	8cc#\J 8ee	.	8ee\	Gdy	.
8A\L 8c# 8g	16b\LL 16dd	.	16dd\	ży-	.
.	16a\ 16cc#	.	16cc#\	-cie	.
8AA\J	16g\ 16b	.	16b\	nas	.
.	16a\JJ 16cc#	.	16cc#\	roz-	.
=23	=23	=23	=23	=23	=23
*	*^	*	*	*	*
8DD\L 8D	4f#\ 4dd	4ryy	.	4dd\	-łą-	.
8F#\J 8A 8d	.	.	.	.	.	.
16F#\LL 16A 16d	[4a/	16f#\LL	.	[4a/	-czy	.
16DD\ 16D	.	16f#\	.	.	.	.
16CC#\ 16C#	.	16fn\	.	.	.	.
16CCn\JJ 16Cn	.	16e\JJ	.	.	.	.
=24	=24	=24	=24	=24	=24	=24
8BBB/L 8BB	8a/L]	4.d#X\	.	8a/]	.	.
8D#X/J 8A 8B	8a/	.	.	8a/	Mój	.
8D#/L 8A 8B	8.b/	.	.	8.b\	świat	.
8BBB/J 8BB	.	8r	.	.	.	.
.	16f#/Jk	.	.	16f#/	się	.
=25	=25	=25	=25	=25	=25	=25
8EE\L 8E	4a/	8B\L 8dn	.	4a/	skoń-	.
8EE\J 8E	.	8B\J 8d	.	.	.	.
8EE\L 8E	[4g/	8B\L 8d	.	[4g/	-czy	.
8EE\J 8E	.	8B-X\J 8d	.	.	.	.
!!LO:PB:g=original	!	!	!	!	!	!
=26	=26	=26	=26	=26	=26	=26
8AA\L	8g/L]	8A\ 8c#	.	8g/]	.	.
8G\J 8A 8c#	8g/J	8re	.	8g/	Cóż	.
8G\L 8A 8c#	16f#/LL	4re	.	16f#/	po-	.
.	16e/	.	.	16e/	-zo-	.
8AA\J	16d/	.	.	16d/	-sta-	.
.	16e/JJ	.	.	16e/	-nie	.
=27	=27	=27	=27	=27	=27	=27
8DD\L 8D	[2f#/	8r	.	[2f#/	mi?	.
8D\J 8F#	.	8A\ 8d	.	.	.	.
8D/L 8F#	.	8.B\L 8.d	.	.	.	.
8AAA/J 8AA	.	.	.	.	.	.
.	.	16B-X\Jk 16d	.	.	.	.
=28	=28	=28	=28	=28	=28	=28
8DD\L 8D	8f#/L]	8A\L 8d	.	8f#/]	.	.
8F#\J 8A 8d	8dd/J	8f#\J	.	8dd\	Gdy	.
8FF#/L 8F#	8.ee/L	8a\L	.	8.ee\	cie-	.
8FFn/J 8Fn	.	8a-X\J	.	.	.	.
.	16b/Jk	.	.	16b\	-bie	.
*	*v	*v	*	*	*	*
=29	=29	=29	=29	=29	=29
8EE\L 8E	4g\ 4dd	.	4dd\	stra-	.
8A\J 8c# 8e	.	.	.	.	.
8A\L 8c# 8e	[4g\ [4cc#	.	[4cc#\	-cę	.
8EE\J 8E	.	.	.	.	.
=30	=30	=30	=30	=30	=30
!LO:TX:t=P:problem: mixed beam	!	!	!	!	!
8AAA/L 8AA	8g\L] 8cc#]	.	8cc#\]	.	.
8A\J 8c# 8e	8cc#\J 8ee	.	8ee\	W o-	.
8A\L 8c# 8g	16b\LL 16dd	.	16dd\	-kru-	.
.	16a\ 16cc#	.	16cc#\	-tnej,	.
8AA\J	16g\ 16b	.	16b\	nie-	.
.	16a\JJ 16cc#	.	16cc#\	-mej	.
!!LO:LB:g=original	!	!	!	!	!
=31	=31	=31	=31	=31	=31
*	*^	*	*	*	*
8DD\L 8D	4dd/	4f#\	.	4dd\	mę-	.
8F#\J 8A 8d	.	.	.	.	.	.
16F#\LL 16A 16d	[4a/	16f#\LL	.	[4a/	-ce	.
16DD\ 16D	.	16f#\	.	.	.	.
16CC#\ 16C#	.	16fn\	.	.	.	.
16CCn\JJ 16Cn	.	16e\JJ	.	.	.	.
=32	=32	=32	=32	=32	=32	=32
8BBB/L 8BB	8a/L]	8d#X\	.	8a/]	.	.
8D#X/J 8A 8B	8a/	8rg	.	8a/	Za-	.
8D#/L 8A 8B	8.b/	4rg	.	8.b\	-ła-	.
8BBB/J 8BB	.	.	.	.	.	.
.	16f#/Jk	.	.	16f#/	-mię	.
=33	=33	=33	=33	=33	=33	=33
8EE/L 8E	4a/	8B\L 8dn	.	4a/	rę-	.
8EE/J 8E	.	8B\J 8d	.	.	.	.
8EE/L 8E	[4g/	8B\L 8d	.	[4g/	-ce,	.
8EE/J 8E	.	8B-X\J 8d	.	.	.	.
=34	=34	=34	=34	=34	=34	=34
8AA\L	8g/L]	8A\ 8c#	.	8g/]	.	.
8G\J 8A 8c#	8g/J	8re	.	8g/	Prze-	.
8G\L 8A 8c#	16f#/LL	4re	.	16f#/	-mi-	.
.	16e/	.	.	16e/	-ną	.
8AA\J	16d/	.	.	16d/	szczę-	.
.	16e/JJ	.	.	16e/	-ścia	.
*	*v	*v	*	*	*	*
=35	=35	=35	=35	=35	=35
*^	*	*	*	*	*
16F#/KL 16A	8DD\L 8D	[2d/	.	[2d/	dni	.
8F#/ 8A	.	.	.	.	.	.
.	8DD\J 8D	.	.	.	.	.
16F#/Jk 16A	.	.	.	.	.	.
8G/L 8B-X	8GG\L 8D	.	.	.	.	.
8G/J 8B-	8GG\J 8D	.	.	.	.	.
=36	=36	=36	=36	=36	=36	=36
8F#/ 8A	8DD\ 8D	8d/]	.	8d/]	.	.
8r	8r	8d/L	.	8d/	I	.
4r	4r	8e/	.	8e/	od-	.
.	.	8f#/J	.	8f#/	-tąd	.
*v	*v	*	*	*	*	*
!!LO:LB:g=original	!	!	!	!	!
=37	=37	=37	=37	=37	=37
8GG\L 8G	8.g/L	.	8.g/	ca-	.
8G\J 8B 8d	.	.	.	.	.
.	16a/Jk	.	16a/	-łe	.
8G\L 8B 8d	8.b-X\L	.	8.b-X\	ży-	.
8DD\J 8D	.	.	.	.	.
.	16cc#X\Jk	.	16cc#X\	-cie	.
=38	=38	=38	=38	=38	=38
8GG\L 8G	8.ee\L	.	8.ee\	reszt-	.
8G\J 8B 8d	.	.	.	.	.
.	16dd\Jk	.	16dd\	-ką	.
8G\L 8B 8d	8.ccn\L	.	8.ccn\	mych	.
8GG\J 8G	.	.	.	.	.
.	16b-X\Jk	.	16b-X\	star-	.
=39	=39	=39	=39	=39	=39
8DD\L 8D	8.a\L	.	8.a/	-ga-	.
8Fn\J 8A 8d	.	.	.	.	.
.	16dd\Jk	.	16dd\	-nych	.
8F\L 8A 8d	[4a/	.	[4a/	sił	.
8AA\J	.	.	.	.	.
=40	=40	=40	=40	=40	=40
8DD/ 8D	8a/]	.	8a/]	.	.
8r	8d/L	.	8d/	Wspo-	.
4r	8e/	.	8e/	-mnie-	.
.	8f#X/J	.	8f#X/	-niem	.
=41	=41	=41	=41	=41	=41
8GG\L 8G	8.g/L	.	8.g/	tyl-	.
8G\J 8B 8d	.	.	.	.	.
.	16a/Jk	.	16a/	-ko	.
8G\L 8B 8d	8.b-X\L	.	8.b-X\	i	.
8GG\J 8G	.	.	.	.	.
.	16cc#X\Jk	.	16cc#X\	prze-	.
=42	=42	=42	=42	=42	=42
*	*^	*	*	*	*
8EE\L 8E	8.ee/L	2g#X\	.	8.ee\	-szło-	.
8G#X\J 8d 8e	.	.	.	.	.	.
.	16dd/Jk	.	.	16dd\	-ścią	.
8G#\L 8d 8e	8.cc#X/L	.	.	8.cc#X\	bę-	.
8EE\J 8E	.	.	.	.	.	.
.	16dd/Jk	.	.	16dd\	-dę	.
!!LO:LB:g=original	!	!	!	!	!	!
=43	=43	=43	=43	=43	=43	=43
8AA\L	[<2gn/ 2cc# [2ee	8r	.	[2ee\	żył.	.
8G\J 8A 8c#	.	16cc#\LL	.	.	.	.
.	.	16cc#\JJ	.	.	.	.
8G\L 8A 8c#	.	8b\L	.	.	.	.
8G\J 8A 8c#	.	8b-X\J	.	.	.	.
=44	=44	=44	=44	=44	=44	=44
8AA\ 8E 8c#	8g/L] 8ee]	8a\L	.	8ee\]	.	.
8r	8dd/J	8a\J	.	8dd\	Gdy	.
8FF#/L 8F#	8.ee/L	8a\L	.	8.ee\	cie-	.
8FFn/J 8Fn	.	8g#X\J	.	.	.	.
.	16b/Jk	.	.	16b\	-bie	.
*	*v	*v	*	*	*	*
=45	=45	=45	=45	=45	=45
8EE\L 8E	4gn\ 4dd	.	4dd\	stra-	.
8G\J 8A 8c#	.	.	.	.	.
8G\L 8A 8c#	[4g\ [4cc#	.	[4cc#\	-cę	.
8EE\J 8E	.	.	.	.	.
=46	=46	=46	=46	=46	=46
8AA\L	8g\L] 8cc#]	.	8cc#\]	.	.
8G\J 8A 8c#	8cc#\J 8ee	.	8ee\	Mój	.
8G\L 8A 8c#	16b\LL 16dd	.	16dd\	sen	.
.	16a\ 16cc#	.	16cc#\	o	.
8AA\J	16g\ 16b	.	16b\	szczę-	.
.	16a\JJ 16cc#	.	16cc#\	-ściu	.
=47	=47	=47	=47	=47	=47
*	*^	*	*	*	*
8DD\L 8D	4dd/	4f#\	.	4dd\	mi-	.
8F#\J 8A 8d	.	.	.	.	.	.
16F#\LL 16A 16d	[4a/	16f#\LL	.	[4a/	-nie,	.
16DD\ 16D	.	16f#\	.	.	.	.
16CC#\ 16C#	.	16fn\	.	.	.	.
16CCn\JJ 16C#	.	16e\JJ	.	.	.	.
=48	=48	=48	=48	=48	=48	=48
8BBB/L 8BB	8a/L]	8d#X\	.	8a/]	.	.
8D#X/J 8A 8B	8a/	8r	.	8a/	Bo	.
8D#/L 8A 8B	8b/	4r	.	8b\	ty	.
8BBB/J 8BB	8f#/J	.	.	8f#/	je-	.
!!LO:LB:g=original	!	!	!	!	!	!
=49	=49	=49	=49	=49	=49	=49
8EE/L 8E	4a/	8B\L 8dn	.	4a/	-dy-	.
8EE/J 8E	.	8B\J 8d	.	.	.	.
8EE/L 8E	[4g/	8B\L 8d	.	[4g/	-nie,	.
8EE/J 8E	.	8B-X\J 8d	.	.	.	.
=50	=50	=50	=50	=50	=50	=50
8AA\L	8g/L]	8A\ 8c#	.	8g/]	.	.
8G\J 8A 8c#	8g/J	8rg	.	8g/	Ty	.
8G\L 8A 8c#	16f#/LL	4re	.	16f#/	wszy-	.
.	16e/	.	.	16e/	-stkiem	.
8AA\J	16d/	.	.	16d/	by-	.
.	16e/JJ	.	.	16e/	-łaś	.
*	*v	*v	*	*	*	*
=51||	=51||	=51||	=51||	=51||	=51||
*>A1	*>A1	*>A1	*>A1	*>A1	*>A1
8.DD/L 8.D	8.d/L	.	8d/	mi!	.
.	.	.	8r	.	.
16AA^/Jk	16A^>/Jk	ff	.	.	.
16BB^>\LL	16B^>/LL	.	4r	.	.
16C#^>\	16c#^>/	.	.	.	.
16D^>\	16d^>/	.	.	.	.
16F#^>\JJ	16f#^>/JJ	.	.	.	.
=52	=52	=52	=52	=52	=52
*	*^	*	*	*	*
8A^\	8a^/L	8a\L	.	8r	.	.
8r	8dd/J	8a\J	.	8dd\	Gdy	.
8FF#/L 8F#	8.ee/L	8a\L	.	8.ee\	cie-	.
8FFn/J 8Fn	.	8g#X\J	.	.	.	.
.	16b/Jk	.	.	16b\	-bie	.
*	*v	*v	*	*	*	*
=53:|!	=53:|!	=53:|!	=53:|!	=53:|!	=53:|!
*>A2	*>A2	*>A2	*>A2	*>A2	*>A2
8DD/ 8AA 8F#	16d/LL	.	[2d/	mi!	.
.	16e/	.	.	.	.
8r	16f#/	.	.	.	.
.	16a/JJ	.	.	.	.
8GG/ 8D 8B-X	16b-X\LL	.	.	.	.
.	16dd\	.	.	.	.
8r	16ee\	.	.	.	.
.	16dd\JJ	.	.	.	.
=54	=54	=54	=54	=54	=54
8D\ 8A 8f#	8a\ 8ff#	.	8d/]	.	.
(8AA^/L	(8c#^>/L 8g 8a	f >	8r	.	.
16DD'/Jk) 16D	16f#'>/Jk) 16a 16dd	] p	4r	.	.
16r	16r	.	.	.	.
8r	8r	.	.	.	.
==	==	==	==	==	==
*-	*-	*-	*-	*-	*-
!!!system-decoration: s1{(s2,s3)}
!!!RDF**kern: > = above
!!!RDF**kern: < = below
!!!ENC: Berenika Jozajtis
!!!END: 2023-08-27
!!!ENC: Jan Barakat
!!!END: 2023-09-24
